icons/repeat.svg

<svg xmlns="http://www.w3.org/2000/svg" width="24" height="24" viewBox="0 0 24 24">
  <path d="M2.21278596,18.6167501 L2.29289322,18.7071068 C2.25749917,18.6717127 2.22531295,18.6343256 2.19633458,18.5953066 C2.17849009,18.5711307 2.1617187,18.546275 2.14606743,18.5206602 C2.13860692,18.5086131 2.13149883,18.4963944 2.12467117,18.4840621 C2.11379392,18.4642939 2.10337664,18.4438914 2.09365378,18.4230991 C2.08567905,18.4060985 2.07819642,18.3887956 2.07122549,18.371336 C2.06331574,18.3515792 2.05612249,18.3317977 2.04954668,18.3117364 C2.04472872,18.2968513 2.04009773,18.2814633 2.03584514,18.265993 C2.02983363,18.2444365 2.0246398,18.2227461 2.02016515,18.2007941 C2.01670217,18.1833753 2.01362808,18.165949 2.0110178,18.1484669 C2.00810098,18.1294204 2.00574796,18.1096949 2.00397748,18.0898018 C2.00168934,18.0636863 2.0003927,18.0380516 2.00007649,18.0124071 C2.00002445,18.0081561 2,18.0040809 2,18 L2.00016755,17.9816379 C2.00059932,17.9579802 2.0018656,17.9343349 2.00396641,17.9107499 L2,18 C2,17.9493797 2.00376119,17.8996379 2.01101934,17.8510388 C2.01362808,17.834051 2.01670217,17.8166247 2.02024007,17.7992742 C2.0246398,17.7772539 2.02983363,17.7555635 2.03572097,17.7341604 C2.04009773,17.7185367 2.04472872,17.7031487 2.04973809,17.6878575 C2.05612249,17.6682023 2.06331574,17.6484208 2.07110396,17.6289415 C2.07819642,17.6112044 2.08567905,17.5939015 2.09367336,17.5767785 C2.10337664,17.5561086 2.11379392,17.5357061 2.12487577,17.515723 C2.13149883,17.5036056 2.13860692,17.4913869 2.14599545,17.4792912 C2.1617187,17.453725 2.17849009,17.4288693 2.19631351,17.4048407 C2.20071786,17.3987914 2.20517454,17.3929267 2.20970461,17.3871006 C2.23766884,17.3515341 2.26442691,17.3213595 2.29289322,17.2928932 L6.29289322,13.2928932 C6.68341751,12.9023689 7.31658249,12.9023689 7.70710678,13.2928932 C8.06759074,13.6533772 8.09532028,14.2206082 7.79029539,14.6128994 L7.70710678,14.7071068 L5.415,17 L17,17 C18.5976809,17 19.9036609,15.75108 19.9949073,14.1762728 L20,14 L20,12 C20,11.4477153 20.4477153,11 21,11 C21.5128358,11 21.9355072,11.3860402 21.9932723,11.8833789 L22,12 L22,14 C22,16.6887547 19.8776933,18.8818181 17.2168896,18.9953805 L17,19 L5.415,19 L7.70710678,21.2928932 C8.06759074,21.6533772 8.09532028,22.2206082 7.79029539,22.6128994 L7.70710678,22.7071068 C7.34662282,23.0675907 6.77939176,23.0953203 6.38710056,22.7902954 L6.29289322,22.7071068 L2.29006146,18.7042637 C2.26265088,18.6766336 2.23684209,18.6474121 2.21278596,18.6167501 Z M17.6128994,1.20970461 L17.7071068,1.29289322 L21.7071068,5.29289322 C21.7355731,5.32135953 21.7623312,5.35153408 21.787214,5.38324992 L21.7071068,5.29289322 C21.7425008,5.32828727 21.774687,5.36567442 21.8036654,5.40469339 C21.8215099,5.42886931 21.8382813,5.45372505 21.8539326,5.47933981 C21.8613931,5.49138689 21.8685012,5.50360556 21.8753288,5.5159379 C21.8862061,5.53570605 21.8966234,5.5561086 21.9063462,5.57690085 C21.914321,5.5939015 21.9218036,5.61120435 21.9287745,5.62866398 C21.9366843,5.6484208 21.9438775,5.66820232 21.9504533,5.68826359 C21.9552713,5.70314866 21.9599023,5.71853672 21.9641549,5.73400703 C21.9701664,5.75556352 21.9753602,5.77725392 21.9798348,5.7992059 C21.9832978,5.81662474 21.9863719,5.83405099 21.9889822,5.85153313 C21.9920328,5.87147534 21.9944666,5.89211395 21.9962623,5.91293499 C21.9978436,5.93173451 21.9989053,5.94973363 21.9994829,5.96774538 C21.9998183,5.97778921 22,5.98887338 22,6 L21.9994506,6.03324678 C21.9988772,6.05059097 21.997855,6.06792309 21.996384,6.08522423 L22,6 C22,6.05062028 21.9962388,6.10036209 21.9889807,6.14896122 C21.9863719,6.16594901 21.9832978,6.18337526 21.9797599,6.20072576 C21.9753602,6.22274608 21.9701664,6.24443648 21.964279,6.26583961 C21.9599023,6.28146328 21.9552713,6.29685134 21.9502619,6.31214252 C21.9438775,6.33179768 21.9366843,6.3515792 21.928896,6.37105852 C21.9218036,6.38879565 21.914321,6.4060985 21.9063266,6.42322155 C21.8966234,6.4438914 21.8862061,6.46429395 21.8751242,6.48427695 C21.8685012,6.49639444 21.8613931,6.50861311 21.8540045,6.52070875 C21.8382813,6.54627495 21.8215099,6.57113069 21.8036865,6.5951593 C21.7992821,6.60120864 21.7948255,6.60707334 21.7902954,6.61289944 C21.7672916,6.64214327 21.7461672,6.66654845 21.7239263,6.68987991 L21.7071068,6.70710678 L17.7071068,10.7071068 C17.3165825,11.0976311 16.6834175,11.0976311 16.2928932,10.7071068 C15.9324093,10.3466228 15.9046797,9.77939176 16.2097046,9.38710056 L16.2928932,9.29289322 L18.585,7 L7,7 C5.40231912,7 4.09633912,8.24891996 4.00509269,9.82372721 L4,10 L4,12 C4,12.5522847 3.55228475,13 3,13 C2.48716416,13 2.06449284,12.6139598 2.00672773,12.1166211 L2,12 L2,10 C2,7.3112453 4.12230671,5.11818189 6.78311038,5.00461951 L7,5 L18.585,5 L16.2928932,2.70710678 C15.9324093,2.34662282 15.9046797,1.77939176 16.2097046,1.38710056 L16.2928932,1.29289322 C16.6533772,0.932409257 17.2206082,0.904679722 17.6128994,1.20970461 Z"/>
</svg>

<svg xmlns="http://www.w3.org/2000/svg" viewBox="0 0 24 24">
  <path d="m2.21 18.62.08.09A1 1 0 0 1 2 18v-.02a1 1 0 0 1 0-.07V18a1 1 0 0 1 .3-.7l4-4a1 1 0 0 1 1.49 1.31l-.08.1L5.4 17H17a3 3 0 0 0 3-2.82V12a1 1 0 0 1 2-.12V14a5 5 0 0 1-4.78 5H5.4l2.3 2.3a1 1 0 0 1 .08 1.31l-.08.1a1 1 0 0 1-1.32.08l-.1-.08-4-4a1 1 0 0 1-.08-.1zM17.61 1.2l.1.08 4 4a1 1 0 0 1 .08.1l-.08-.1A1 1 0 0 1 22 6v.03a1 1 0 0 1 0 .06V6a1 1 0 0 1-.28.69l-.01.02-4 4a1 1 0 0 1-1.5-1.32l.08-.1L18.6 7H7a3 3 0 0 0-3 2.82V12a1 1 0 0 1-2 .12V10a5 5 0 0 1 4.78-5H18.6l-2.3-2.3a1 1 0 0 1-.08-1.31l.08-.1a1 1 0 0 1 1.32-.08z"/>
</svg>
